X:1
T:Title
%%score { ( 1 3 ) | 2 }
L:1/8
Q:1/4=96
M:4/4
K:G
V:1 treble nm="Grand Piano"
V:3 treble 
V:2 bass 
V:1
 DGGG G2 G2 | F[Fc][Fc][Fc] [Fc]4 | Bcde d2 B2 | BAGB A4 | DGGG G2 G2 | F[Fc][Fc][Fc] [Fc]4 | %6
w: W.~A.~Ogden * * * * *||||||
 Bcde d2 B2 | GFEF [B,DG]4 | [B,D]2 [B,DG]2 [A,DF]2 [Fc]2 | [GB]>A G>A B2 G2 | %10
w: ||||
 E2 [G,EG]2 [G,D]2 [B,DG]2 | z4 A4[K:bass] | [B,D]2 [B,DG]2 [A,DF]2 [Fc]2 | [GB]>A G>A B2 G2 | %14
w: ||||
 E2 [DG]2 [Dc]2 [DB]2 | B>A G>F [B,DG]4 |] %16
w: ||
V:2
 [G,B,][G,B,D][G,B,D][G,B,D] [G,B,D]2 [G,B,D]2 | [D,A,D][D,A,][D,A,][D,A,] [D,A,]4 | %2
 [G,D][G,A,D][G,B,G][G,CG] [G,B,G]2[K:bass] [G,D]2 | [E,A,^C][E,A,C][E,A,C][E,G,C] [D,F,D]4 | %4
 [G,B,][G,B,D][G,B,D][G,B,D] [G,B,D]2 [G,B,D]2 | [D,A,D][D,A,][D,A,][D,A,] [D,A,]4 | %6
 [G,D][G,A,D][G,B,G][G,CG] [G,B,G]2[K:bass] [G,D]2 | [D,B,D][D,A,D][D,G,D][D,A,D] G,,4 | %8
 G,,2 G,,2 D,2 [D,A,]2 | [D,G,]>[D,CD] [D,B,D]>[D,F,D] [G,D]2 [G,B,D]2 | [C,G,C]2 C,2 B,,2 G,,2 | %11
 [D,F,D]>[D,G,D] [D,A,D]>[D,G,D] [D,F,D]4 | G,,2 G,,2 D,2 [D,A,]2 | %13
 [D,G,]>[D,CD] [D,B,D]>[D,F,D] [G,D]2 [G,B,D]2 | [C,C]2 [B,,G,]2 [A,,F,]2 [G,,G,]2 | %15
 [D,G,D]>[D,CD] [D,B,D]>[D,A,D] G,,4 |] %16
V:3
 x8 | x8 | x8 | x8 | x8 | x8 | x8 | x8 | x8 | x8 | x8 | A>B c>B z z/[K:bass] C,/ B,,>A,, | x8 | %13
 x8 | x8 | x8 |] %16

